flaticon/emoticons/miserly-1.svg

<svg xmlns="http://www.w3.org/2000/svg" width="32" height="32" viewBox="0 0 24 24">
    <path d="M 13.738281 14.761719 C 13.566406 14.867188 13.394531 14.988281 13.230469 15.109375 C 12.6875 14.894531 12.101562 14.832031 11.519531 14.953125 C 10.300781 15.203125 9.335938 16.234375 9.164062 17.464844 C 9.042969 18.34375 9.308594 19.226562 9.894531 19.882812 C 10.464844 20.523438 11.277344 20.890625 12.136719 20.890625 C 12.15625 20.890625 12.179688 20.886719 12.199219 20.886719 C 13.359375 20.863281 14.417969 20.128906 14.898438 19.015625 C 15.117188 18.5 15.175781 17.964844 15.085938 17.414062 C 15.253906 17.292969 15.410156 17.160156 15.550781 17.011719 C 16.066406 16.476562 16.09375 15.691406 15.621094 15.101562 C 15.144531 14.515625 14.371094 14.375 13.738281 14.761719 Z M 14.164062 18.699219 C 13.804688 19.523438 13.027344 20.070312 12.183594 20.089844 C 11.535156 20.101562 10.921875 19.835938 10.492188 19.351562 C 10.0625 18.871094 9.867188 18.222656 9.957031 17.574219 C 10.082031 16.675781 10.789062 15.917969 11.679688 15.738281 C 11.832031 15.707031 11.984375 15.691406 12.132812 15.691406 C 12.238281 15.691406 12.339844 15.699219 12.441406 15.710938 C 12.027344 16.066406 11.664062 16.414062 11.398438 16.683594 C 11.089844 16.996094 11.015625 17.472656 11.210938 17.867188 L 11.519531 18.480469 C 11.644531 18.730469 11.871094 18.921875 12.144531 19.003906 C 12.414062 19.085938 12.710938 19.050781 12.957031 18.910156 C 13.46875 18.613281 13.929688 18.316406 14.328125 18.03125 C 14.3125 18.257812 14.257812 18.476562 14.164062 18.699219 Z M 14.972656 16.460938 C 14.605469 16.847656 14.085938 17.117188 13.222656 17.566406 C 12.929688 17.71875 12.597656 17.890625 12.222656 18.09375 L 11.925781 17.507812 C 11.925781 17.5 11.925781 17.496094 11.925781 17.488281 C 12.035156 17.351562 13.054688 16.121094 14.15625 15.445312 C 14.507812 15.230469 14.828125 15.398438 14.996094 15.605469 C 15.164062 15.8125 15.257812 16.164062 14.972656 16.460938 Z M 14.972656 16.460938"/>
    <path d="M 23.917969 10.628906 C 23.757812 9.949219 23.371094 9.363281 22.886719 9.066406 C 22.5625 8.867188 22.214844 8.800781 21.882812 8.882812 C 21.808594 8.898438 21.734375 8.925781 21.664062 8.960938 C 20.730469 6.6875 19.273438 5.214844 17.773438 4.265625 L 18.316406 3.179688 C 18.417969 2.980469 18.335938 2.742188 18.140625 2.640625 C 17.941406 2.542969 17.699219 2.625 17.601562 2.820312 L 17.082031 3.863281 C 16.832031 3.730469 16.589844 3.613281 16.347656 3.503906 L 16.738281 2.324219 C 16.808594 2.117188 16.695312 1.890625 16.488281 1.820312 C 16.277344 1.75 16.050781 1.863281 15.980469 2.074219 L 15.601562 3.210938 C 15.324219 3.109375 15.054688 3.027344 14.796875 2.953125 L 15.140625 1.925781 C 15.210938 1.714844 15.097656 1.488281 14.886719 1.417969 C 14.675781 1.347656 14.449219 1.460938 14.382812 1.671875 L 14.019531 2.761719 C 13.511719 2.65625 13.078125 2.597656 12.757812 2.566406 L 12.757812 1.800781 C 12.757812 1.578125 12.582031 1.398438 12.359375 1.398438 C 12.136719 1.398438 11.960938 1.578125 11.960938 1.800781 L 11.960938 2.535156 C 11.75 2.546875 11.382812 2.574219 10.90625 2.652344 L 10.753906 1.734375 C 10.71875 1.515625 10.511719 1.367188 10.292969 1.40625 C 10.074219 1.441406 9.929688 1.648438 9.964844 1.863281 L 10.121094 2.800781 C 9.691406 2.898438 9.21875 3.03125 8.71875 3.210938 L 8.339844 2.074219 C 8.269531 1.863281 8.042969 1.75 7.832031 1.820312 C 7.625 1.890625 7.511719 2.117188 7.578125 2.324219 L 7.972656 3.503906 C 7.628906 3.65625 7.277344 3.832031 6.925781 4.035156 L 6.316406 2.820312 C 6.21875 2.621094 5.976562 2.542969 5.78125 2.640625 C 5.582031 2.742188 5.503906 2.980469 5.601562 3.179688 L 6.242188 4.457031 C 5.890625 4.699219 5.542969 4.972656 5.203125 5.277344 L 4.242188 4.316406 C 4.085938 4.160156 3.832031 4.160156 3.675781 4.316406 C 3.519531 4.472656 3.519531 4.726562 3.675781 4.882812 L 4.632812 5.835938 C 3.402344 7.144531 2.375 8.972656 1.902344 11.523438 C 1.894531 11.554688 1.890625 11.589844 1.886719 11.621094 C 1.785156 11.59375 1.679688 11.574219 1.574219 11.574219 C 0.691406 11.574219 0 12.527344 0 13.746094 C 0 14.960938 0.691406 15.914062 1.574219 15.914062 C 1.738281 15.914062 1.894531 15.875 2.046875 15.808594 C 2.328125 16.875 2.792969 17.878906 3.429688 18.757812 C 4.707031 20.519531 7.21875 22.601562 11.9375 22.601562 C 12.011719 22.601562 12.082031 22.601562 12.15625 22.597656 C 12.230469 22.601562 12.304688 22.601562 12.375 22.601562 C 17.09375 22.601562 19.605469 20.519531 20.882812 18.757812 C 22.035156 17.171875 22.621094 15.179688 22.574219 13.128906 C 22.589844 13.128906 22.601562 13.132812 22.617188 13.132812 C 22.707031 13.132812 22.796875 13.125 22.886719 13.101562 C 23.742188 12.898438 24.199219 11.8125 23.917969 10.628906 Z M 1.871094 14.996094 C 1.789062 15.0625 1.6875 15.113281 1.574219 15.113281 C 1.207031 15.113281 0.800781 14.550781 0.800781 13.746094 C 0.800781 12.9375 1.207031 12.375 1.574219 12.375 C 1.640625 12.375 1.710938 12.394531 1.777344 12.429688 C 1.757812 12.644531 1.746094 12.855469 1.738281 13.070312 C 1.738281 13.082031 1.738281 13.097656 1.738281 13.109375 C 1.734375 13.289062 1.734375 13.464844 1.738281 13.640625 C 1.742188 13.695312 1.742188 13.75 1.746094 13.804688 C 1.753906 13.949219 1.761719 14.09375 1.777344 14.234375 C 1.78125 14.292969 1.785156 14.347656 1.789062 14.40625 C 1.808594 14.578125 1.832031 14.753906 1.859375 14.925781 C 1.863281 14.949219 1.867188 14.972656 1.871094 14.996094 Z M 20.234375 18.289062 C 18.507812 20.667969 15.796875 21.867188 12.160156 21.800781 L 12.152344 21.800781 C 8.515625 21.859375 5.804688 20.667969 4.078125 18.289062 C 3.253906 17.152344 2.746094 15.785156 2.585938 14.34375 C 2.582031 14.3125 2.582031 14.28125 2.578125 14.25 C 2.558594 14.019531 2.542969 13.789062 2.539062 13.558594 C 2.535156 13.460938 2.539062 13.359375 2.539062 13.257812 C 2.542969 13.09375 2.546875 12.933594 2.558594 12.769531 C 2.566406 12.652344 2.574219 12.535156 2.585938 12.414062 C 2.613281 12.167969 2.640625 11.917969 2.6875 11.667969 C 3.125 9.296875 4.0625 7.601562 5.183594 6.386719 L 5.675781 6.882812 C 5.753906 6.960938 5.855469 7 5.957031 7 C 6.0625 7 6.164062 6.960938 6.242188 6.882812 C 6.398438 6.726562 6.398438 6.472656 6.242188 6.316406 L 5.75 5.824219 C 6.023438 5.578125 6.304688 5.351562 6.585938 5.152344 L 6.800781 5.578125 C 6.871094 5.71875 7.011719 5.800781 7.160156 5.800781 C 7.21875 5.800781 7.28125 5.785156 7.335938 5.757812 C 7.535156 5.660156 7.613281 5.417969 7.515625 5.222656 L 7.265625 4.71875 C 7.582031 4.535156 7.902344 4.371094 8.214844 4.230469 L 8.378906 4.726562 C 8.433594 4.894531 8.589844 5 8.757812 5 C 8.800781 5 8.84375 4.992188 8.886719 4.980469 C 9.09375 4.910156 9.207031 4.683594 9.136719 4.472656 L 8.957031 3.933594 C 9.417969 3.769531 9.851562 3.652344 10.246094 3.566406 L 10.363281 4.265625 C 10.398438 4.460938 10.566406 4.601562 10.757812 4.601562 C 10.78125 4.601562 10.800781 4.597656 10.824219 4.59375 C 11.042969 4.558594 11.1875 4.351562 11.152344 4.136719 L 11.035156 3.425781 C 11.441406 3.367188 11.765625 3.34375 11.957031 3.335938 L 11.957031 4.199219 C 11.957031 4.421875 12.136719 4.601562 12.359375 4.601562 C 12.578125 4.601562 12.757812 4.421875 12.757812 4.199219 L 12.757812 3.363281 C 13.027344 3.386719 13.371094 3.429688 13.769531 3.503906 L 13.578125 4.074219 C 13.507812 4.28125 13.621094 4.507812 13.832031 4.578125 C 13.875 4.59375 13.917969 4.601562 13.957031 4.601562 C 14.125 4.601562 14.28125 4.492188 14.335938 4.328125 L 14.550781 3.683594 C 14.808594 3.753906 15.078125 3.835938 15.359375 3.933594 L 15.179688 4.472656 C 15.109375 4.683594 15.222656 4.910156 15.429688 4.980469 C 15.472656 4.992188 15.515625 5 15.558594 5 C 15.726562 5 15.882812 4.894531 15.9375 4.726562 L 16.101562 4.230469 C 16.3125 4.324219 16.523438 4.433594 16.738281 4.546875 L 16.398438 5.21875 C 16.300781 5.417969 16.382812 5.660156 16.578125 5.757812 C 16.636719 5.785156 16.695312 5.800781 16.757812 5.800781 C 16.902344 5.800781 17.046875 5.71875 17.117188 5.578125 L 17.429688 4.953125 C 18.835938 5.867188 20.195312 7.296875 21.039062 9.539062 L 21.035156 9.539062 L 21.109375 9.746094 C 21.210938 10.039062 21.300781 10.332031 21.382812 10.632812 C 21.394531 10.667969 21.402344 10.703125 21.414062 10.742188 C 21.492188 11.042969 21.5625 11.351562 21.621094 11.667969 C 21.671875 11.933594 21.707031 12.199219 21.730469 12.46875 C 21.734375 12.511719 21.742188 12.558594 21.746094 12.605469 C 21.917969 14.671875 21.386719 16.703125 20.234375 18.289062 Z M 22.699219 12.324219 C 22.644531 12.335938 22.585938 12.335938 22.523438 12.324219 C 22.523438 12.308594 22.519531 12.292969 22.519531 12.277344 C 22.492188 12.027344 22.457031 11.773438 22.410156 11.523438 C 22.355469 11.214844 22.285156 10.917969 22.214844 10.632812 C 22.207031 10.597656 22.195312 10.5625 22.1875 10.53125 C 22.113281 10.257812 22.035156 9.992188 21.953125 9.738281 C 21.949219 9.730469 21.949219 9.722656 21.945312 9.714844 C 21.984375 9.6875 22.027344 9.667969 22.070312 9.660156 C 22.222656 9.625 22.371094 9.6875 22.46875 9.746094 C 22.769531 9.933594 23.027344 10.339844 23.140625 10.8125 C 23.324219 11.597656 23.054688 12.238281 22.699219 12.324219 Z M 22.699219 12.324219"/>
    <path d="M 14.398438 6.542969 C 12.960938 6.542969 11.71875 7.394531 11.144531 8.617188 C 10.644531 7.851562 9.78125 7.34375 8.800781 7.34375 C 7.253906 7.34375 6 8.601562 6 10.144531 C 6 11.6875 7.253906 12.945312 8.800781 12.945312 C 9.78125 12.945312 10.644531 12.4375 11.144531 11.671875 C 11.71875 12.894531 12.960938 13.746094 14.398438 13.746094 C 16.382812 13.746094 18 12.128906 18 10.144531 C 18 8.160156 16.382812 6.542969 14.398438 6.542969 Z M 14.398438 7.34375 C 15.070312 7.34375 15.6875 7.582031 16.171875 7.980469 L 11.609375 9.933594 C 11.71875 8.488281 12.925781 7.34375 14.398438 7.34375 Z M 8.800781 8.144531 C 9.839844 8.144531 10.691406 8.949219 10.78125 9.96875 L 7.386719 8.730469 C 7.746094 8.371094 8.246094 8.144531 8.800781 8.144531 Z M 8.800781 12.144531 C 7.695312 12.144531 6.800781 11.246094 6.800781 10.144531 C 6.800781 9.890625 6.851562 9.644531 6.941406 9.421875 L 10.683594 10.78125 C 10.417969 11.570312 9.675781 12.144531 8.800781 12.144531 Z M 14.398438 12.945312 C 13.074219 12.945312 11.960938 12.015625 11.671875 10.777344 L 16.738281 8.605469 C 17.027344 9.046875 17.199219 9.578125 17.199219 10.144531 C 17.199219 11.6875 15.941406 12.945312 14.398438 12.945312 Z M 14.398438 12.945312"/>
    <path d="M9.597656 10.945312C9.597656 11.164062 9.421875 11.34375 9.199219 11.34375 8.980469 11.34375 8.800781 11.164062 8.800781 10.945312 8.800781 10.722656 8.980469 10.542969 9.199219 10.542969 9.421875 10.542969 9.597656 10.722656 9.597656 10.945312zM14 11.144531C14 11.476562 13.730469 11.746094 13.398438 11.746094 13.066406 11.746094 12.800781 11.476562 12.800781 11.144531 12.800781 10.8125 13.066406 10.542969 13.398438 10.542969 13.730469 10.542969 14 10.8125 14 11.144531zM14 11.144531"/>
</svg>

<svg xmlns="http://www.w3.org/2000/svg" width="32" height="32" viewBox="0 0 24 24">
    <path d="M13.738 14.762a7.298 7.298 0 0 0-.508.347 2.973 2.973 0 0 0-1.71-.156 3.024 3.024 0 0 0-2.356 2.512 3.008 3.008 0 0 0 2.973 3.426c.02 0 .043-.004.062-.004 1.16-.024 2.219-.758 2.7-1.871.218-.516.277-1.051.187-1.602.168-.121.324-.254.465-.402.515-.535.543-1.32.07-1.91-.476-.586-1.25-.727-1.883-.34zm.426 3.937c-.36.824-1.137 1.371-1.98 1.39a2.206 2.206 0 0 1-2.227-2.516 2.209 2.209 0 0 1 2.176-1.882c.105 0 .207.008.308.02a17.53 17.53 0 0 0-1.043.973c-.308.312-.382.789-.187 1.183l.309.613a1.03 1.03 0 0 0 1.437.43c.512-.297.973-.594 1.371-.879-.015.227-.07.446-.164.668zm.809-2.238c-.368.387-.887.656-1.75 1.105-.293.153-.625.325-1 .528l-.297-.586v-.02c.11-.136 1.129-1.367 2.23-2.043.352-.215.672-.047.84.16.168.207.262.56-.023.856zm0 0"/>
    <path d="M23.918 10.629c-.16-.68-.547-1.266-1.031-1.563-.325-.199-.672-.265-1.004-.183a.916.916 0 0 0-.219.078c-.934-2.274-2.39-3.746-3.89-4.695l.542-1.086a.401.401 0 0 0-.175-.54.405.405 0 0 0-.54.18l-.519 1.043c-.25-.133-.492-.25-.734-.36l.39-1.179a.4.4 0 1 0-.758-.25l-.378 1.137a11.849 11.849 0 0 0-.805-.258l.344-1.027a.4.4 0 0 0-.254-.508.395.395 0 0 0-.504.254l-.363 1.09a12.012 12.012 0 0 0-1.262-.196v-.765a.398.398 0 1 0-.797 0v.734c-.211.012-.578.04-1.055.117l-.152-.918a.396.396 0 0 0-.461-.328.398.398 0 0 0-.328.457l.156.938c-.43.097-.902.23-1.402.41l-.38-1.137a.4.4 0 0 0-.76.25l.394 1.18c-.344.152-.696.328-1.047.531l-.61-1.215a.399.399 0 0 0-.535-.18.403.403 0 0 0-.18.54l.641 1.277c-.351.242-.699.516-1.039.82l-.96-.96a.4.4 0 0 0-.567.566l.957.953c-1.23 1.309-2.258 3.137-2.73 5.687-.008.032-.012.067-.016.098a1.21 1.21 0 0 0-.313-.047c-.883 0-1.574.953-1.574 2.172 0 1.215.691 2.168 1.574 2.168.164 0 .32-.039.473-.105a8.885 8.885 0 0 0 1.383 2.949c1.277 1.762 3.789 3.844 8.508 3.844.074 0 .144 0 .218-.004.074.004.149.004.219.004 4.719 0 7.23-2.082 8.508-3.844 1.152-1.586 1.738-3.578 1.691-5.63.016 0 .028.005.043.005.09 0 .18-.008.27-.031.855-.204 1.312-1.29 1.031-2.473zM1.871 14.996a.477.477 0 0 1-.297.117c-.367 0-.773-.562-.773-1.367 0-.809.406-1.371.773-1.371a.44.44 0 0 1 .203.055c-.02.215-.03.425-.039.64v.04c-.004.18-.004.355 0 .53.004.055.004.11.008.165.008.144.016.289.031.43l.012.171c.02.172.043.348.07.52l.012.07zm18.363 3.293c-1.726 2.379-4.437 3.578-8.074 3.512h-.008c-3.636.058-6.347-1.133-8.074-3.512-.824-1.137-1.332-2.504-1.492-3.945-.004-.031-.004-.063-.008-.094-.02-.23-.035-.46-.039-.691-.004-.098 0-.2 0-.301a10.2 10.2 0 0 1 .047-.844c.027-.246.055-.496.102-.746.437-2.371 1.374-4.066 2.496-5.281l.492.496a.399.399 0 0 0 .566 0 .4.4 0 0 0 0-.567l-.492-.492a9.26 9.26 0 0 1 .836-.672l.215.426a.4.4 0 0 0 .535.18c.2-.098.277-.34.18-.535l-.25-.504c.316-.184.636-.348.949-.489l.164.497c.055.168.21.273.379.273a.491.491 0 0 0 .129-.02.402.402 0 0 0 .25-.507l-.18-.54c.461-.163.895-.28 1.29-.367l.116.7a.405.405 0 0 0 .395.336c.023 0 .043-.004.066-.008a.398.398 0 0 0 .328-.457l-.117-.711c.406-.059.73-.082.922-.09v.863a.401.401 0 0 0 .8 0v-.836c.27.024.614.067 1.013.14l-.192.571a.398.398 0 0 0 .254.504.37.37 0 0 0 .125.024c.168 0 .324-.11.379-.274l.215-.644c.258.07.527.152.808.25l-.18.539c-.07.21.044.437.25.507.044.012.087.02.13.02a.397.397 0 0 0 .379-.273l.164-.497c.21.094.421.204.636.317l-.34.672a.405.405 0 0 0 .36.582c.144 0 .289-.082.36-.223l.312-.625c1.406.914 2.765 2.344 3.61 4.586h-.005l.074.207c.102.293.192.586.274.887.012.035.02.07.031.11.078.3.148.609.207.925.05.266.086.531.11.8.003.044.011.09.015.137.172 2.067-.36 4.098-1.512 5.684zm2.465-5.965a.443.443 0 0 1-.176 0c0-.015-.003-.031-.003-.047-.028-.25-.063-.504-.11-.754a13.663 13.663 0 0 0-.195-.89c-.008-.035-.02-.07-.027-.102-.075-.273-.153-.539-.235-.793-.004-.008-.004-.015-.008-.023a.322.322 0 0 1 .125-.055c.153-.035.301.027.399.086.3.188.558.594.672 1.066.183.786-.086 1.426-.442 1.512zm0 0"/>
    <path d="M14.398 6.543a3.6 3.6 0 0 0-3.253 2.074A2.797 2.797 0 0 0 6 10.145a2.797 2.797 0 1 0 5.145 1.527 3.6 3.6 0 0 0 3.253 2.074A3.608 3.608 0 0 0 18 10.145a3.608 3.608 0 0 0-3.602-3.602zm0 .8c.672 0 1.29.239 1.774.637l-4.563 1.954a2.803 2.803 0 0 1 2.79-2.59zm-5.597.802c1.039 0 1.89.804 1.98 1.824L7.387 8.73c.36-.359.86-.585 1.414-.585zm0 4c-1.106 0-2-.899-2-2 0-.254.05-.5.14-.723l3.743 1.36A1.994 1.994 0 0 1 8.8 12.144zm5.597.8a2.81 2.81 0 0 1-2.726-2.168l5.066-2.172c.29.442.461.973.461 1.54 0 1.543-1.258 2.8-2.8 2.8zm0 0"/>
    <path d="M9.598 10.945a.398.398 0 1 1-.797 0 .398.398 0 0 1 .797 0zm0 0M14 11.145c0 .332-.27.601-.602.601a.598.598 0 0 1-.597-.601.598.598 0 1 1 1.199 0zm0 0"/>
</svg>
